X:40
T: The Gold Rush
C: Bill Monroe
S: MandoZine TablEdit Archives
S: GoldRush2-A-Monroe.tef
Z: TablEdited by Mike Stangeland for MandoZine
N: advanced version (Hot Break)
L: 1/8
Q: 440
M: 4/4
K: A
 z2 EF AB cd | "A"e2 ef ed cd | eA EA fc Ae | =gf ed cB AF | E2 EE E2 AF | EC EF AF AB |
 cB cd ec AB | cB AF "E"E=C ^CE | "A"AF EF AB cd | eA EA fA EA | eA EA fA EA | =gf ed cB AF |
 ^DE EE E2 AF | EC EF AF AB | cB cd ec AB | cB AF "E"E=C ^CE | "A"A2 AA A2 c'b |: "A"af ed cA Bc |
 "D"de fd "A"e2 cB | AB cd ef a2 |1 "F#m"ac' c'c' c'2 c'b | "A"af ed cA Bc | "D"de fd "A"ec AB |
 "A"cB Ac "E"BA GB | "A"AG AA A2 c'b :|2 "F#m"ac' c'c' c'2 c'd' | "A"e'c' ab c'a fg |
 "D"af cd "A"ec AB | "A"cB AF "E"ED CB, | "A"A,8 |
